docs/.gitbook/assets/icon-check-list-16@dark.svg

<svg width="32" height="32" viewBox="0 0 16 16" fill="none" xmlns="http://www.w3.org/2000/svg">
<rect x="0" y="0" width="16" height="16" fill="#181c1f"/>
<path fill-rule="evenodd" clip-rule="evenodd" d="M6.50767 3C6.50767 2.58579 6.84346 2.25 7.25767 2.25H14.25C14.6642 2.25 15 2.58579 15 3C15 3.41421 14.6642 3.75 14.25 3.75H7.25767C6.84346 3.75 6.50767 3.41421 6.50767 3ZM6.50767 8C6.50767 7.58579 6.84346 7.25 7.25767 7.25H14.25C14.6642 7.25 15 7.58579 15 8C15 8.41421 14.6642 8.75 14.25 8.75H7.25767C6.84346 8.75 6.50767 8.41421 6.50767 8ZM6.50767 13C6.50767 12.5858 6.84346 12.25 7.25767 12.25H14.25C14.6642 12.25 15 12.5858 15 13C15 13.4142 14.6642 13.75 14.25 13.75H7.25767C6.84346 13.75 6.50767 13.4142 6.50767 13ZM1.08252 3.26465C1.08252 2.71236 1.53023 2.26465 2.08252 2.26465H4.08252C4.6348 2.26465 5.08252 2.71236 5.08252 3.26465V5.26465C5.08252 5.81693 4.6348 6.26465 4.08252 6.26465H2.08252C1.53023 6.26465 1.08252 5.81693 1.08252 5.26465V3.26465ZM4.08252 3.26465H2.08252V5.26465H4.08252V3.26465ZM4.72584 9.82342L4.72592 9.82332L4.72594 9.82331L4.72597 9.82327L4.72599 9.82325C4.90795 9.61568 4.88728 9.29989 4.67977 9.11782C4.4722 8.93569 4.15629 8.95632 3.97416 9.16389L4.35 9.49365C3.97416 9.16389 3.97411 9.16395 3.97405 9.16401L3.97391 9.16418L3.97354 9.1646L3.97245 9.16585L3.96891 9.16991L3.95654 9.18422C3.94602 9.19646 3.93101 9.21404 3.91203 9.23661C3.87408 9.28172 3.82019 9.34682 3.75451 9.42896C3.62333 9.59302 3.44416 9.82625 3.25067 10.1049C2.99346 10.4752 2.7006 10.9404 2.46331 11.4392L1.93607 10.9119C1.74081 10.7167 1.42423 10.7167 1.22897 10.9119C1.0337 11.1072 1.0337 11.4238 1.22897 11.6191L2.29208 12.6822C2.41572 12.8058 2.59497 12.8559 2.76479 12.8142C2.93461 12.7725 3.07032 12.6452 3.12269 12.4783C3.31811 11.8557 3.71036 11.1961 4.07203 10.6753C4.25012 10.4188 4.41528 10.2039 4.53553 10.0535C4.59556 9.97839 4.64416 9.91971 4.67728 9.88034C4.69383 9.86067 4.70649 9.84584 4.71476 9.83623L4.72379 9.82577L4.72571 9.82356L4.72584 9.82342Z" fill="#fff"/>
</svg>

<svg xmlns="http://www.w3.org/2000/svg" width="32" height="32" fill="none" viewBox="0 0 16 16"><path fill="#181c1f" d="M0 0h16v16H0z"/><path fill="#fff" fill-rule="evenodd" d="M6.508 3a.75.75 0 0 1 .75-.75h6.992a.75.75 0 0 1 0 1.5H7.258a.75.75 0 0 1-.75-.75m0 5a.75.75 0 0 1 .75-.75h6.992a.75.75 0 0 1 0 1.5H7.258a.75.75 0 0 1-.75-.75m0 5a.75.75 0 0 1 .75-.75h6.992a.75.75 0 0 1 0 1.5H7.258a.75.75 0 0 1-.75-.75M1.083 3.265a1 1 0 0 1 1-1h2a1 1 0 0 1 1 1v2a1 1 0 0 1-1 1h-2a1 1 0 0 1-1-1zm3 0h-2v2h2zm.643 6.558a.5.5 0 0 0-.752-.66l.376.33-.376-.329-.002.002-.003.004-.012.014a6 6 0 0 0-.202.245c-.132.164-.31.397-.504.676-.258.37-.55.835-.788 1.334l-.527-.527a.5.5 0 0 0-.707.707l1.063 1.063a.5.5 0 0 0 .83-.204c.196-.622.588-1.282.95-1.803a12 12 0 0 1 .643-.839l.009-.01z" clip-rule="evenodd"/></svg>
